media/img/appstore.svg

<svg width="207" height="49" viewBox="0 0 207 49" fill="none" xmlns="http://www.w3.org/2000/svg">
<path d="M30.9243 22.8378C30.9465 21.2311 31.405 19.6557 32.2569 18.2583C33.1089 16.8609 34.3267 15.6867 35.7971 14.8452C34.863 13.6033 33.6307 12.5812 32.1981 11.8602C30.7655 11.1392 29.172 10.7391 27.5443 10.6916C24.0718 10.3522 20.7056 12.6259 18.936 12.6259C17.1324 12.6259 14.4081 10.7253 11.4745 10.7815C9.57692 10.8385 7.72757 11.3522 6.10663 12.2724C4.48569 13.1927 3.14846 14.4881 2.22522 16.0325C-1.77392 22.4784 1.2091 31.9513 5.04012 37.1615C6.95677 39.7128 9.19662 42.5626 12.1277 42.4615C14.9958 42.3509 16.0669 40.7589 19.5292 40.7589C22.9593 40.7589 23.9643 42.4615 26.9547 42.3972C30.0324 42.3509 31.9714 39.8347 33.8209 37.2592C35.198 35.4414 36.2576 33.4322 36.9606 31.3062C35.1726 30.6022 33.6467 29.4237 32.5733 27.9178C31.4998 26.4119 30.9263 24.6451 30.9243 22.8378ZM25.2759 7.26493C26.9539 5.38959 27.7806 2.97917 27.5804 0.545543C25.0167 0.79621 22.6485 1.93688 20.9477 3.74027C20.1162 4.62127 19.4793 5.64621 19.0735 6.75649C18.6677 7.86678 18.501 9.04063 18.5828 10.2109C19.8651 10.2232 21.1338 9.9645 22.2931 9.4542C23.4525 8.9439 24.4723 8.19535 25.2759 7.26493ZM67.18 36.0028H57.3922L55.0417 42.4639H50.8958L60.1668 18.5593H64.474L73.7448 42.4639H69.5284L67.18 36.0028ZM58.4058 33.0212H66.1642L62.3396 22.5353H62.2325L58.4058 33.0212ZM93.7666 33.7507C93.7666 39.1665 90.6526 42.6462 85.9538 42.6462C84.7634 42.7041 83.5796 42.4489 82.5378 41.9096C81.496 41.3704 80.6384 40.5689 80.0632 39.597H79.9743V48.2294H76.1315V25.0355H79.8513V27.9344H79.922C80.5236 26.9671 81.3957 26.1698 82.4453 25.6273C83.495 25.0847 84.6831 24.8172 85.883 24.8532C90.6345 24.8532 93.7666 28.3498 93.7666 33.7506V33.7507ZM89.8166 33.7507C89.8166 30.2222 87.858 27.9024 84.8694 27.9024C81.9331 27.9024 79.9584 30.2709 79.9584 33.7506C79.9584 37.2623 81.9331 39.6141 84.8694 39.6141C87.858 39.6141 89.8166 37.3112 89.8166 33.7506V33.7507ZM114.372 33.7507C114.372 39.1665 111.258 42.6462 106.559 42.6462C105.369 42.7041 104.185 42.4488 103.143 41.9096C102.101 41.3703 101.244 40.5689 100.669 39.597H100.58V48.2294H96.737V25.0355H100.457V27.9344H100.527C101.129 26.9671 102.001 26.1698 103.051 25.6273C104.1 25.0847 105.288 24.8172 106.488 24.8532C111.24 24.8532 114.372 28.3498 114.372 33.7506V33.7507ZM110.422 33.7507C110.422 30.2222 108.463 27.9024 105.475 27.9024C102.538 27.9024 100.564 30.2709 100.564 33.7506C100.564 37.2623 102.538 39.6141 105.475 39.6141C108.463 39.6141 110.422 37.3112 110.422 33.7506V33.7507ZM127.99 35.8036C128.275 38.174 130.749 39.7306 134.129 39.7306C137.368 39.7306 139.699 38.174 139.699 36.0365C139.699 34.181 138.293 33.0701 134.965 32.3087L131.637 31.5624C126.922 30.5021 124.733 28.4493 124.733 25.1181C124.733 20.9936 128.594 18.1608 134.077 18.1608C139.502 18.1608 143.222 20.9936 143.347 25.1181H139.468C139.236 22.7327 137.118 21.2926 134.022 21.2926C130.926 21.2926 128.808 22.7496 128.808 24.87C128.808 26.5601 130.161 27.5546 133.471 28.3157L136.3 28.9625C141.568 30.1223 143.757 32.0926 143.757 35.5889C143.757 40.0613 139.931 42.8623 133.844 42.8623C128.15 42.8623 124.305 40.1269 124.057 35.8034L127.99 35.8036ZM152.051 20.9112V25.0355H155.611V27.8685H152.051V37.4766C152.051 38.9692 152.764 39.6647 154.329 39.6647C154.751 39.6579 155.173 39.6302 155.593 39.5819V42.3982C154.889 42.5205 154.174 42.5758 153.458 42.5634C149.668 42.5634 148.19 41.2382 148.19 37.8581V27.8685H145.468V25.0355H148.19V20.9112H152.051ZM157.673 33.7507C157.673 28.267 161.142 24.8213 166.552 24.8213C171.98 24.8213 175.433 28.267 175.433 33.7507C175.433 39.2493 171.998 42.68 166.552 42.68C161.108 42.68 157.673 39.2493 157.673 33.7507ZM171.517 33.7507C171.517 29.9891 169.666 27.7688 166.552 27.7688C163.438 27.7688 161.588 30.0059 161.588 33.7507C161.588 37.5274 163.438 39.7306 166.552 39.7306C169.666 39.7306 171.517 37.5274 171.517 33.7507ZM178.601 25.0355H182.266V28.0019H182.355C182.603 27.0755 183.186 26.2567 184.006 25.6833C184.826 25.1099 185.833 24.8168 186.858 24.8532C187.301 24.8518 187.743 24.8965 188.175 24.9866V28.3328C187.616 28.1738 187.033 28.1008 186.448 28.1167C185.89 28.0956 185.333 28.1872 184.817 28.3853C184.3 28.5833 183.836 28.8831 183.455 29.264C183.075 29.645 182.788 30.0981 182.613 30.5921C182.438 31.0862 182.381 31.6096 182.444 32.1264V42.4639H178.601V25.0355ZM205.892 37.3449C205.376 40.5088 202.066 42.68 197.831 42.68C192.385 42.68 189.005 39.2832 189.005 33.8333C189.005 28.3667 192.403 24.8213 197.67 24.8213C202.85 24.8213 206.107 28.1336 206.107 33.4179V34.6436H192.884V34.8597C192.823 35.5011 192.909 36.1473 193.137 36.7553C193.365 37.3633 193.729 37.9192 194.205 38.3861C194.682 38.853 195.259 39.2203 195.9 39.4634C196.54 39.7066 197.229 39.8201 197.92 39.7964C198.828 39.8756 199.74 39.6798 200.519 39.2381C201.298 38.7965 201.903 38.1324 202.244 37.3449H205.892ZM192.902 32.1434H202.262C202.296 31.5666 202.202 30.9895 201.986 30.4482C201.769 29.9068 201.435 29.413 201.004 28.9976C200.573 28.5823 200.054 28.2544 199.48 28.0345C198.906 27.8146 198.29 27.7075 197.67 27.7199C197.044 27.7165 196.424 27.8284 195.844 28.0493C195.265 28.2702 194.739 28.5957 194.296 29.0069C193.853 29.4182 193.501 29.9071 193.262 30.4454C193.023 30.9837 192.9 31.5608 192.902 32.1434ZM57.9242 0.566141C58.7299 0.512308 59.5384 0.625609 60.2913 0.897871C61.0442 1.17013 61.7228 1.59457 62.2782 2.14056C62.8336 2.68655 63.2519 3.34049 63.5029 4.05521C63.7539 4.76992 63.8314 5.52759 63.7298 6.27356C63.7298 9.94298 61.5994 12.0524 57.9242 12.0524H53.4675V0.565948L57.9242 0.566141ZM55.3839 10.4279H57.7102C58.2859 10.4599 58.862 10.372 59.3966 10.1706C59.9312 9.96922 60.4108 9.65939 60.8005 9.26368C61.1903 8.86798 61.4804 8.39634 61.6496 7.88312C61.8189 7.36989 61.8631 6.82799 61.779 6.29685C61.857 5.76781 61.8083 5.22926 61.6365 4.71979C61.4646 4.21032 61.1738 3.74255 60.785 3.34998C60.3961 2.95742 59.9188 2.64978 59.3872 2.44912C58.8556 2.24845 58.283 2.15973 57.7102 2.1893H55.3839V10.4279ZM65.8946 7.71442C65.836 7.14478 65.906 6.57003 66.1001 6.02705C66.2941 5.48406 66.6079 4.98482 67.0213 4.56135C67.4348 4.13788 67.9387 3.79953 68.5009 3.568C69.063 3.33646 69.6709 3.21686 70.2856 3.21686C70.9003 3.21686 71.5082 3.33646 72.0703 3.568C72.6325 3.79953 73.1364 4.13788 73.5499 4.56135C73.9633 4.98482 74.2771 5.48406 74.4711 6.02705C74.6651 6.57003 74.7351 7.14478 74.6766 7.71442C74.7364 8.28473 74.6674 8.86038 74.4739 9.40436C74.2805 9.94835 73.9669 10.4486 73.5533 10.8731C73.1398 11.2975 72.6354 11.6366 72.0726 11.8687C71.5098 12.1008 70.9011 12.2207 70.2856 12.2207C69.6701 12.2207 69.0613 12.1008 68.4986 11.8687C67.9358 11.6366 67.4314 11.2975 67.0178 10.8731C66.6043 10.4486 66.2907 9.94835 66.0973 9.40436C65.9038 8.86038 65.8348 8.28473 65.8946 7.71442ZM72.7866 7.71442C72.7866 5.83543 71.8799 4.73664 70.2887 4.73664C68.6913 4.73664 67.7929 5.83543 67.7929 7.71442C67.7929 9.60842 68.6915 10.6987 70.2887 10.6987C71.8799 10.6987 72.7866 9.60091 72.7866 7.71442ZM86.3506 12.0522H84.4441L82.5198 5.66815H82.3744L80.4582 12.0522H78.57L76.0035 3.38395H77.8672L79.5353 9.99823H79.6726L81.587 3.38395H83.3498L85.2642 9.99823H85.4095L87.0693 3.38395H88.907L86.3506 12.0522ZM91.0656 3.38414H92.8346V4.76109H92.9719C93.2048 4.26649 93.5977 3.85186 94.0958 3.57502C94.5939 3.29817 95.1724 3.1729 95.7506 3.21667C96.2037 3.18497 96.6586 3.24857 97.0816 3.40276C97.5047 3.55695 97.8851 3.79777 98.1946 4.10739C98.5041 4.41701 98.7348 4.78749 98.8697 5.19139C99.0045 5.59529 99.04 6.02225 98.9735 6.44065V12.052H97.1358V6.87031C97.1358 5.47738 96.4855 4.78457 95.1266 4.78457C94.819 4.77126 94.5119 4.82001 94.2264 4.92749C93.941 5.03497 93.6839 5.19863 93.4727 5.40726C93.2615 5.6159 93.1013 5.86457 93.003 6.13623C92.9047 6.4079 92.8707 6.69613 92.9032 6.98119V12.0522H91.0656V3.38414ZM101.902 0.000192761H103.739V12.0522H101.902V0.000192761ZM106.294 7.71442C106.235 7.1447 106.305 6.56988 106.499 6.02682C106.693 5.48376 107.007 4.98445 107.42 4.56093C107.834 4.1374 108.338 3.799 108.9 3.56744C109.462 3.33587 110.07 3.21625 110.685 3.21625C111.3 3.21625 111.908 3.33587 112.47 3.56744C113.032 3.799 113.536 4.1374 113.95 4.56093C114.363 4.98445 114.677 5.48376 114.871 6.02682C115.065 6.56988 115.135 7.1447 115.077 7.71442C115.136 8.28464 115.067 8.86014 114.873 9.40395C114.68 9.94777 114.366 10.4479 113.952 10.8721C113.539 11.2963 113.035 11.6353 112.472 11.8673C111.909 12.0993 111.301 12.2192 110.685 12.2192C110.07 12.2192 109.461 12.0993 108.898 11.8673C108.336 11.6353 107.831 11.2963 107.418 10.8721C107.004 10.4479 106.691 9.94777 106.497 9.40395C106.303 8.86014 106.234 8.28464 106.294 7.71442ZM113.186 7.71442C113.186 5.83543 112.279 4.73664 110.688 4.73664C109.09 4.73664 108.192 5.83543 108.192 7.71442C108.192 9.60842 109.09 10.6987 110.688 10.6987C112.279 10.6987 113.186 9.60091 113.186 7.71442ZM117.011 9.60091C117.011 8.04051 118.259 7.14096 120.474 7.01314L122.996 6.87781V6.12957C122.996 5.21404 122.346 4.69718 121.09 4.69718C120.064 4.69718 119.354 5.04772 119.15 5.66064H117.371C117.558 4.17166 119.063 3.21686 121.175 3.21686C123.509 3.21686 124.826 4.29871 124.826 6.12957V12.0522H123.057V10.8341H122.912C122.617 11.271 122.202 11.6272 121.711 11.8663C121.219 12.1054 120.669 12.2189 120.115 12.195C119.724 12.2329 119.329 12.1941 118.955 12.0811C118.581 11.9681 118.237 11.7834 117.945 11.539C117.652 11.2946 117.418 10.9959 117.257 10.6621C117.097 10.3282 117.013 9.96676 117.011 9.60091ZM122.996 8.86017V8.13542L120.723 8.27074C119.44 8.35063 118.859 8.7568 118.859 9.52083C118.859 10.301 119.586 10.7551 120.585 10.7551C120.878 10.7827 121.174 10.7552 121.455 10.6742C121.737 10.5932 121.997 10.4603 122.222 10.2835C122.447 10.1067 122.632 9.88958 122.765 9.64506C122.898 9.40054 122.977 9.13362 122.996 8.86017ZM127.241 7.71442C127.241 4.97534 128.754 3.24034 131.106 3.24034C131.688 3.21537 132.266 3.34511 132.771 3.61441C133.277 3.88371 133.69 4.28143 133.962 4.76109H134.099V0H135.936V12.052H134.176V10.6824H134.03C133.737 11.1588 133.31 11.5516 132.795 11.8182C132.279 12.0848 131.696 12.215 131.106 12.1948C128.737 12.1948 127.241 10.4597 127.241 7.71422V7.71442ZM129.139 7.71442C129.139 9.55279 130.07 10.6593 131.627 10.6593C133.176 10.6593 134.133 9.537 134.133 7.72173C134.133 5.91532 133.166 4.77707 131.627 4.77707C130.08 4.77707 129.139 5.89087 129.139 7.71442ZM143.539 7.71442C143.481 7.14478 143.551 6.57003 143.745 6.02705C143.939 5.48406 144.253 4.98482 144.666 4.56135C145.079 4.13788 145.583 3.79953 146.146 3.568C146.708 3.33646 147.316 3.21686 147.93 3.21686C148.545 3.21686 149.153 3.33646 149.715 3.568C150.277 3.79953 150.781 4.13788 151.194 4.56135C151.608 4.98482 151.922 5.48406 152.116 6.02705C152.31 6.57003 152.38 7.14478 152.321 7.71442C152.381 8.28473 152.312 8.86038 152.119 9.40436C151.925 9.94835 151.612 10.4486 151.198 10.8731C150.784 11.2975 150.28 11.6366 149.717 11.8687C149.154 12.1008 148.546 12.2207 147.93 12.2207C147.315 12.2207 146.706 12.1008 146.143 11.8687C145.58 11.6366 145.076 11.2975 144.663 10.8731C144.249 10.4486 143.935 9.94835 143.742 9.40436C143.548 8.86038 143.479 8.28473 143.539 7.71442ZM150.431 7.71442C150.431 5.83543 149.525 4.73664 147.933 4.73664C146.336 4.73664 145.438 5.83543 145.438 7.71442C145.438 9.60842 146.336 10.6987 147.933 10.6987C149.525 10.6987 150.431 9.60091 150.431 7.71442ZM154.787 3.38414H156.556V4.76109H156.693C156.926 4.26649 157.319 3.85186 157.817 3.57502C158.315 3.29817 158.894 3.1729 159.472 3.21667C159.925 3.18497 160.38 3.24857 160.803 3.40276C161.226 3.55695 161.606 3.79777 161.916 4.10739C162.225 4.41701 162.456 4.78749 162.591 5.19139C162.726 5.59529 162.761 6.02225 162.695 6.44065V12.052H160.857V6.87031C160.857 5.47738 160.207 4.78457 158.848 4.78457C158.54 4.77126 158.233 4.82001 157.948 4.92749C157.662 5.03497 157.405 5.19863 157.194 5.40726C156.983 5.6159 156.823 5.86457 156.724 6.13623C156.626 6.4079 156.592 6.69613 156.625 6.98119V12.0522H154.787L154.787 3.38414ZM173.078 1.22603V3.4236H175.096V4.86446H173.078V9.3216C173.078 10.2296 173.48 10.6273 174.395 10.6273C174.629 10.6266 174.863 10.6133 175.095 10.5877V12.0127C174.765 12.0677 174.431 12.0969 174.096 12.1001C172.052 12.1001 171.239 11.4308 171.239 9.75972V4.86446H169.76V3.42341H171.239V1.22622L173.078 1.22603ZM177.606 0.000192761H179.427V4.77707H179.572C179.817 4.27785 180.22 3.86089 180.728 3.583C181.236 3.30511 181.824 3.17981 182.412 3.22417C182.862 3.20134 183.313 3.27139 183.731 3.42933C184.149 3.58726 184.525 3.8292 184.831 4.13787C185.138 4.44654 185.367 4.81434 185.503 5.21502C185.639 5.6157 185.678 6.03939 185.618 6.45586V12.0522H183.779V6.87781C183.779 5.49317 183.086 4.79208 181.788 4.79208C181.472 4.76799 181.154 4.80842 180.857 4.91055C180.56 5.01269 180.29 5.17405 180.067 5.38337C179.843 5.59268 179.672 5.84489 179.564 6.12235C179.456 6.3998 179.415 6.69581 179.443 6.98966V12.0522H177.606V0.000192761ZM196.333 9.7116C196.083 10.5038 195.542 11.1892 194.805 11.6476C194.067 12.1061 193.18 12.3085 192.298 12.2195C191.685 12.2346 191.075 12.1252 190.512 11.899C189.948 11.6727 189.444 11.335 189.035 10.9094C188.626 10.4837 188.321 9.98017 188.142 9.43381C187.963 8.88745 187.913 8.31132 187.997 7.74541C187.915 7.17774 187.966 6.60035 188.144 6.05233C188.323 5.50431 188.626 4.99846 189.034 4.56903C189.441 4.1396 189.942 3.79661 190.504 3.56329C191.066 3.32996 191.675 3.21176 192.29 3.21667C194.881 3.21667 196.444 4.86446 196.444 7.58641V8.18335H189.869V8.27921C189.84 8.5973 189.883 8.91749 189.995 9.21923C190.107 9.52097 190.285 9.79761 190.519 10.0314C190.752 10.2652 191.036 10.451 191.351 10.5769C191.666 10.7028 192.006 10.766 192.349 10.7625C192.788 10.8116 193.234 10.7379 193.628 10.5508C194.023 10.3637 194.348 10.0716 194.564 9.7116H196.333ZM189.869 6.91824H194.572C194.595 6.62732 194.553 6.33511 194.447 6.06038C194.342 5.78566 194.176 5.53449 193.96 5.32301C193.744 5.11154 193.483 4.94444 193.194 4.83245C192.905 4.72046 192.593 4.66606 192.28 4.67273C191.962 4.66901 191.647 4.72455 191.353 4.83609C191.058 4.94763 190.791 5.11291 190.566 5.32219C190.341 5.53146 190.164 5.78049 190.044 6.05461C189.924 6.32872 189.865 6.62237 189.869 6.91824Z" fill="white"/>
</svg>

<svg width="207" height="49" viewBox="0 0 207 49" fill="none" xmlns="http://www.w3.org/2000/svg"><path d="M30.924 22.838a9.027 9.027 0 011.333-4.58 9.873 9.873 0 013.54-3.413 10.267 10.267 0 00-3.599-2.985 11.083 11.083 0 00-4.654-1.168c-3.472-.34-6.838 1.934-8.608 1.934-1.804 0-4.528-1.9-7.461-1.845a11.594 11.594 0 00-5.368 1.491 10.6 10.6 0 00-3.882 3.76c-3.999 6.446-1.016 15.92 2.815 21.13 1.917 2.55 4.157 5.4 7.088 5.3 2.868-.111 3.939-1.703 7.401-1.703 3.43 0 4.435 1.703 7.426 1.638 3.077-.046 5.016-2.562 6.866-5.138a20.541 20.541 0 003.14-5.953c-1.788-.704-3.314-1.882-4.388-3.388a8.757 8.757 0 01-1.649-5.08zM25.276 7.265C26.954 5.39 27.78 2.979 27.58.545c-2.563.251-4.931 1.392-6.632 3.195a8.8 8.8 0 00-1.875 3.016 8.353 8.353 0 00-.49 3.455 9.007 9.007 0 003.71-.757 8.411 8.411 0 002.983-2.19zM67.18 36.003h-9.788l-2.35 6.46h-4.146l9.27-23.904h4.308l9.27 23.905h-4.216l-2.348-6.461zm-8.774-2.982h7.758L62.34 22.535h-.108l-3.826 10.486zm35.36.73c0 5.416-3.113 8.895-7.812 8.895a6.733 6.733 0 01-3.416-.736 6.143 6.143 0 01-2.475-2.313h-.089v8.632h-3.843V25.035h3.72v2.9h.071a6.442 6.442 0 012.523-2.308 7.04 7.04 0 013.438-.774c4.752 0 7.884 3.497 7.884 8.898zm-3.95 0c0-3.529-1.958-5.849-4.947-5.849-2.936 0-4.91 2.369-4.91 5.849 0 3.511 1.974 5.863 4.91 5.863 2.989 0 4.948-2.303 4.948-5.863zm24.556 0c0 5.416-3.114 8.895-7.813 8.895a6.735 6.735 0 01-3.416-.736 6.14 6.14 0 01-2.474-2.313h-.089v8.632h-3.843V25.035h3.72v2.9h.07a6.444 6.444 0 012.524-2.308 7.035 7.035 0 013.437-.774c4.752 0 7.884 3.497 7.884 8.898zm-3.95 0c0-3.529-1.959-5.849-4.947-5.849-2.937 0-4.911 2.369-4.911 5.849 0 3.511 1.974 5.863 4.911 5.863 2.988 0 4.947-2.303 4.947-5.863zm17.568 2.053c.285 2.37 2.759 3.927 6.139 3.927 3.239 0 5.57-1.557 5.57-3.695 0-1.855-1.406-2.966-4.734-3.727l-3.328-.747c-4.715-1.06-6.904-3.113-6.904-6.444 0-4.124 3.861-6.957 9.344-6.957 5.425 0 9.145 2.833 9.27 6.957h-3.879c-.232-2.385-2.35-3.825-5.446-3.825-3.096 0-5.214 1.457-5.214 3.577 0 1.69 1.353 2.685 4.663 3.446l2.829.646c5.268 1.16 7.457 3.13 7.457 6.627 0 4.472-3.826 7.273-9.913 7.273-5.694 0-9.539-2.735-9.787-7.059h3.933zm24.061-14.893v4.124h3.56v2.834h-3.56v9.608c0 1.492.713 2.188 2.278 2.188a13.04 13.04 0 001.264-.083v2.816c-.704.122-1.419.178-2.135.165-3.79 0-5.268-1.325-5.268-4.705v-9.99h-2.722v-2.832h2.722V20.91h3.861zm5.622 12.84c0-5.484 3.469-8.93 8.879-8.93 5.428 0 8.881 3.446 8.881 8.93 0 5.498-3.435 8.929-8.881 8.929-5.444 0-8.879-3.43-8.879-8.93zm13.844 0c0-3.762-1.851-5.982-4.965-5.982s-4.964 2.237-4.964 5.982c0 3.776 1.85 5.98 4.964 5.98 3.114 0 4.965-2.204 4.965-5.98zm7.084-8.715h3.665v2.966h.089a4.152 4.152 0 011.651-2.319 4.696 4.696 0 012.852-.83c.443-.001.885.043 1.317.134v3.346a5.745 5.745 0 00-1.727-.216 4.124 4.124 0 00-1.631.268 3.893 3.893 0 00-1.362.879c-.38.381-.667.834-.842 1.328a3.367 3.367 0 00-.169 1.534v10.338h-3.843V25.036zm27.291 12.309c-.516 3.164-3.826 5.335-8.061 5.335-5.446 0-8.826-3.397-8.826-8.847 0-5.466 3.398-9.012 8.665-9.012 5.18 0 8.437 3.313 8.437 8.597v1.226h-13.223v.216a4.246 4.246 0 00.253 1.895 4.501 4.501 0 001.068 1.631 4.908 4.908 0 001.695 1.077c.64.244 1.329.357 2.02.333.908.08 1.82-.116 2.599-.558a4.032 4.032 0 001.725-1.893h3.648zm-12.99-5.202h9.36a3.942 3.942 0 00-.276-1.695 4.173 4.173 0 00-.982-1.45 4.53 4.53 0 00-1.524-.963 4.796 4.796 0 00-1.81-.315 5.056 5.056 0 00-1.826.33 4.776 4.776 0 00-1.548.957c-.443.411-.795.9-1.034 1.438a4.146 4.146 0 00-.36 1.698zM57.924.566a5.828 5.828 0 012.367.332 5.498 5.498 0 011.987 1.243c.556.546.974 1.2 1.225 1.914a4.75 4.75 0 01.227 2.219c0 3.669-2.13 5.778-5.806 5.778h-4.456V.566h4.456zm-2.54 9.862h2.326a4.139 4.139 0 001.687-.257 3.895 3.895 0 001.404-.907c.39-.396.68-.868.849-1.38a3.38 3.38 0 00.129-1.587 3.383 3.383 0 00-.143-1.577 3.572 3.572 0 00-.851-1.37 3.908 3.908 0 00-1.398-.9 4.15 4.15 0 00-1.677-.26h-2.326v8.238zm10.51-2.714a3.839 3.839 0 01.206-1.687 4.053 4.053 0 01.921-1.466 4.415 4.415 0 011.48-.993 4.691 4.691 0 011.785-.351 4.7 4.7 0 011.784.351c.563.232 1.066.57 1.48.993.413.424.727.923.921 1.466.194.543.264 1.118.206 1.687a3.84 3.84 0 01-.203 1.69 4.052 4.052 0 01-.92 1.47 4.415 4.415 0 01-1.481.995 4.692 4.692 0 01-1.787.352 4.69 4.69 0 01-1.787-.352 4.416 4.416 0 01-1.481-.996 4.053 4.053 0 01-.92-1.469 3.84 3.84 0 01-.203-1.69zm6.893 0c0-1.879-.907-2.977-2.498-2.977-1.598 0-2.496 1.098-2.496 2.977 0 1.894.898 2.985 2.496 2.985 1.59 0 2.498-1.098 2.498-2.985zm13.564 4.338h-1.907L82.52 5.668h-.146l-1.916 6.384H78.57l-2.566-8.668h1.863l1.668 6.614h.138l1.914-6.614h1.763l1.914 6.614h.145l1.66-6.614h1.838l-2.556 8.668zm4.715-8.668h1.769v1.377h.137c.233-.495.626-.91 1.124-1.186a2.955 2.955 0 011.655-.358c.453-.032.908.032 1.33.186.424.154.804.395 1.114.704.31.31.54.68.675 1.084.134.404.17.831.103 1.25v5.611h-1.837V6.87c0-1.393-.65-2.085-2.01-2.085a2.279 2.279 0 00-.9.142 2.15 2.15 0 00-.753.48 1.967 1.967 0 00-.47.73 1.86 1.86 0 00-.1.844v5.071h-1.837V3.384zM101.902 0h1.837v12.052h-1.837V0zm4.392 7.714a3.835 3.835 0 01.205-1.687 4.058 4.058 0 01.921-1.466 4.424 4.424 0 011.48-.994 4.69 4.69 0 011.785-.35 4.7 4.7 0 011.785.35c.562.232 1.066.57 1.48.994.413.423.727.923.921 1.466a3.85 3.85 0 01.206 1.687c.059.57-.01 1.146-.204 1.69a4.04 4.04 0 01-.921 1.468 4.405 4.405 0 01-1.48.995 4.697 4.697 0 01-3.574 0 4.415 4.415 0 01-1.48-.995 4.053 4.053 0 01-.921-1.468 3.828 3.828 0 01-.203-1.69zm6.892 0c0-1.879-.907-2.977-2.498-2.977-1.598 0-2.496 1.098-2.496 2.977 0 1.894.898 2.985 2.496 2.985 1.591 0 2.498-1.098 2.498-2.985zm3.825 1.887c0-1.56 1.248-2.46 3.463-2.588l2.522-.135V6.13c0-.916-.65-1.433-1.906-1.433-1.026 0-1.736.35-1.94.964h-1.779c.187-1.49 1.692-2.444 3.804-2.444 2.334 0 3.651 1.082 3.651 2.913v5.922h-1.769v-1.218h-.145a3.06 3.06 0 01-1.201 1.032 3.327 3.327 0 01-1.596.329 3.01 3.01 0 01-1.16-.114 2.863 2.863 0 01-1.01-.542 2.633 2.633 0 01-.688-.877 2.485 2.485 0 01-.246-1.061zm5.985-.74v-.726l-2.273.136c-1.283.08-1.864.486-1.864 1.25 0 .78.727 1.234 1.726 1.234.293.028.589 0 .87-.08.282-.082.542-.215.767-.392a2.06 2.06 0 00.543-.638 1.92 1.92 0 00.231-.785zm4.245-1.147c0-2.739 1.513-4.474 3.865-4.474a3.25 3.25 0 011.665.374c.506.27.919.667 1.191 1.147h.137V0h1.837v12.052h-1.76v-1.37h-.146c-.293.477-.72.87-1.235 1.136a3.427 3.427 0 01-1.689.377c-2.369 0-3.865-1.735-3.865-4.48zm1.898 0c0 1.839.931 2.945 2.488 2.945 1.549 0 2.506-1.122 2.506-2.937 0-1.807-.967-2.945-2.506-2.945-1.547 0-2.488 1.114-2.488 2.937zm14.4 0a3.85 3.85 0 01.206-1.687 4.058 4.058 0 01.921-1.466 4.404 4.404 0 011.48-.993 4.69 4.69 0 011.784-.351c.615 0 1.223.12 1.785.351a4.41 4.41 0 011.479.993c.414.424.728.923.922 1.466.194.543.264 1.118.205 1.687.06.57-.009 1.146-.202 1.69a4.056 4.056 0 01-.921 1.47 4.419 4.419 0 01-1.481.995 4.691 4.691 0 01-1.787.352c-.615 0-1.224-.12-1.787-.352a4.405 4.405 0 01-1.48-.996 4.043 4.043 0 01-.921-1.469 3.83 3.83 0 01-.203-1.69zm6.892 0c0-1.879-.906-2.977-2.498-2.977-1.597 0-2.495 1.098-2.495 2.977 0 1.894.898 2.985 2.495 2.985 1.592 0 2.498-1.098 2.498-2.985zm4.356-4.33h1.769v1.377h.137c.233-.495.626-.91 1.124-1.186a2.956 2.956 0 011.655-.358c.453-.032.908.032 1.331.186.423.154.803.395 1.113.704.309.31.54.68.675 1.084s.17.831.104 1.25v5.611h-1.838V6.87c0-1.393-.65-2.085-2.009-2.085a2.275 2.275 0 00-.9.142 2.143 2.143 0 00-.754.48 1.979 1.979 0 00-.47.73c-.098.27-.132.56-.099.844v5.071h-1.838V3.384zm18.291-2.158v2.198h2.018v1.44h-2.018v4.458c0 .908.402 1.305 1.317 1.305.234 0 .468-.014.7-.04v1.426c-.33.055-.664.084-.999.087-2.044 0-2.857-.67-2.857-2.34V4.864h-1.479v-1.44h1.479V1.225h1.839zM177.606 0h1.821v4.777h.145c.245-.5.648-.916 1.156-1.194a3.04 3.04 0 011.684-.359 3.27 3.27 0 011.319.205c.418.158.794.4 1.1.709.307.309.536.676.672 1.077.136.4.175.824.115 1.24v5.597h-1.839V6.878c0-1.385-.693-2.086-1.991-2.086a2.325 2.325 0 00-.931.119 2.198 2.198 0 00-.79.472 2.01 2.01 0 00-.503.74 1.892 1.892 0 00-.121.867v5.062h-1.837V0zm18.727 9.712a3.552 3.552 0 01-1.528 1.936 4.001 4.001 0 01-2.507.572 4.501 4.501 0 01-1.786-.321 4.23 4.23 0 01-1.477-.99 3.873 3.873 0 01-.893-1.475 3.68 3.68 0 01-.145-1.689 3.741 3.741 0 01.147-1.693 3.923 3.923 0 01.89-1.483 4.29 4.29 0 011.47-1.006 4.568 4.568 0 011.786-.346c2.591 0 4.154 1.647 4.154 4.37v.596h-6.575v.096a2.14 2.14 0 00.126.94c.112.302.29.579.524.812.233.234.517.42.832.546.315.126.655.189.998.185.439.05.885-.024 1.279-.211.395-.187.72-.48.936-.84h1.769zm-6.464-2.794h4.703a1.952 1.952 0 00-.125-.858 2.066 2.066 0 00-.487-.737 2.263 2.263 0 00-.766-.49 2.394 2.394 0 00-.914-.16 2.532 2.532 0 00-.927.163 2.4 2.4 0 00-.787.486c-.225.21-.402.458-.522.733a2.08 2.08 0 00-.175.863z" fill="#fff"/></svg>
